public/assets/plask_logo.svg

<svg xmlns="http://www.w3.org/2000/svg" xmlns:xlink="http://www.w3.org/1999/xlink" width="320" height="210" version="1.1" viewBox="0 0 320 210"><title>Artboard</title><g id="Artboard--Artboard" fill="none" fill-rule="evenodd" stroke="none" stroke-width="1"><rect width="320" height="210" x="0" y="0" fill="#6963F7"/><path id="Artboard--PLASK" fill="#FFF" fill-rule="nonzero" d="M109.344,117.12 L109.344,109.704 L113.808,109.704 C115.848,109.704 117.582,109.386 119.01,108.75 C120.438,108.114 121.53,107.19 122.286,105.978 C123.042,104.766 123.42,103.284 123.42,101.532 C123.42,99.78 123.042,98.298 122.286,97.086 C121.53,95.874 120.438,94.95 119.01,94.314 C117.582,93.678 115.848,93.36 113.808,93.36 L113.808,93.36 L102,93.36 L102,117.12 L109.344,117.12 Z M112.62,104.376 L109.344,104.376 L109.344,98.688 L112.62,98.688 C113.7,98.688 114.54,98.922 115.14,99.39 C115.74,99.858 116.04,100.572 116.04,101.532 C116.04,102.492 115.74,103.206 115.14,103.674 C114.54,104.142 113.7,104.376 112.62,104.376 L112.62,104.376 Z M145.269162,117.12 L145.269162,111.612 L133.965162,111.612 L133.965162,93.36 L126.621162,93.36 L126.621162,117.12 L145.269162,117.12 Z M153.258324,117.12 L154.623,112.189 L161.863,112.189 L163.194324,117.12 L170.754324,117.12 L162.726324,93.36 L153.906324,93.36 L145.914324,117.12 L153.258324,117.12 Z M160.58,107.437 L155.938,107.437 L157.254324,102.684 L158.226324,98.832 L158.298324,98.832 L159.306324,102.72 L160.58,107.437 Z M182.451486,117.48 C184.419486,117.48 186.183486,117.18 187.743486,116.58 C189.303486,115.98 190.533486,115.08 191.433486,113.88 C192.333486,112.68 192.783486,111.18 192.783486,109.38 C192.783486,107.532 192.195486,106.074 191.019486,105.006 C189.843486,103.938 188.055486,103.128 185.655486,102.576 L185.655486,102.576 L182.055486,101.748 C181.215486,101.556 180.561486,101.34 180.093486,101.1 C179.625486,100.86 179.391486,100.548 179.391486,100.164 C179.391486,99.852 179.493486,99.57 179.697486,99.318 C179.901486,99.066 180.231486,98.868 180.687486,98.724 C181.143486,98.58 181.743486,98.508 182.487486,98.508 C183.951486,98.508 185.289486,98.766 186.501486,99.282 C187.713486,99.798 188.859486,100.512 189.939486,101.424 L189.939486,101.424 L193.143486,96.708 C191.823486,95.46 190.287486,94.53 188.535486,93.918 C186.783486,93.306 184.779486,93 182.523486,93 C180.267486,93 178.335486,93.336 176.727486,94.008 C175.119486,94.68 173.895486,95.616 173.055486,96.816 C172.215486,98.016 171.795486,99.396 171.795486,100.956 C171.795486,102.42 172.125486,103.602 172.785486,104.502 C173.445486,105.402 174.327486,106.104 175.431486,106.608 C176.535486,107.112 177.735486,107.508 179.031486,107.796 L179.031486,107.796 L182.991486,108.696 C183.855486,108.888 184.443486,109.11 184.755486,109.362 C185.067486,109.614 185.223486,109.944 185.223486,110.352 C185.223486,110.688 185.127486,110.976 184.935486,111.216 C184.743486,111.456 184.425486,111.642 183.981486,111.774 C183.537486,111.906 182.967486,111.972 182.271486,111.972 C181.287486,111.972 180.267486,111.828 179.211486,111.54 C178.155486,111.252 177.159486,110.862 176.223486,110.37 C175.287486,109.878 174.495486,109.32 173.847486,108.696 L173.847486,108.696 L170.679486,113.556 C171.567486,114.372 172.623486,115.074 173.847486,115.662 C175.071486,116.25 176.421486,116.7 177.897486,117.012 C179.373486,117.324 180.891486,117.48 182.451486,117.48 Z M203.148648,117.12 L203.148,110.711 L205.562,107.593 L210.636648,117.12 L218.952648,117.12 L210.756,102.904 L218.376648,93.36 L210.420648,93.36 L203.148,103.073 L203.148648,93.36 L195.804648,93.36 L195.804648,117.12 L203.148648,117.12 Z"/></g></svg>

<svg xmlns="http://www.w3.org/2000/svg" width="320" height="210"><g fill="none" fill-rule="evenodd"><path fill="#6963F7" d="M0 0h320v210H0z"/><path fill="#FFF" fill-rule="nonzero" d="M109.344 117.12v-7.416h4.464c2.04 0 3.774-.318 5.202-.954 1.428-.636 2.52-1.56 3.276-2.772.756-1.212 1.134-2.694 1.134-4.446 0-1.752-.378-3.234-1.134-4.446-.756-1.212-1.848-2.136-3.276-2.772-1.428-.636-3.162-.954-5.202-.954H102v23.76h7.344zm3.276-12.744h-3.276v-5.688h3.276c1.08 0 1.92.234 2.52.702.6.468.9 1.182.9 2.142s-.3 1.674-.9 2.142c-.6.468-1.44.702-2.52.702zm32.65 12.744v-5.508h-11.305V93.36h-7.344v23.76h18.648zm7.988 0 1.365-4.931h7.24l1.331 4.931h7.56l-8.028-23.76h-8.82l-7.992 23.76h7.344zm7.322-9.683h-4.642l1.316-4.753.972-3.852h.072l1.008 3.888 1.274 4.717zm21.871 10.043c1.968 0 3.732-.3 5.292-.9 1.56-.6 2.79-1.5 3.69-2.7.9-1.2 1.35-2.7 1.35-4.5 0-1.848-.588-3.306-1.764-4.374-1.176-1.068-2.964-1.878-5.364-2.43l-3.6-.828c-.84-.192-1.494-.408-1.962-.648-.468-.24-.702-.552-.702-.936 0-.312.102-.594.306-.846.204-.252.534-.45.99-.594.456-.144 1.056-.216 1.8-.216 1.464 0 2.802.258 4.014.774a13.546 13.546 0 0 1 3.438 2.142l3.204-4.716a12.741 12.741 0 0 0-4.608-2.79c-1.752-.612-3.756-.918-6.012-.918s-4.188.336-5.796 1.008c-1.608.672-2.832 1.608-3.672 2.808-.84 1.2-1.26 2.58-1.26 4.14 0 1.464.33 2.646.99 3.546.66.9 1.542 1.602 2.646 2.106 1.104.504 2.304.9 3.6 1.188l3.96.9c.864.192 1.452.414 1.764.666.312.252.468.582.468.99 0 .336-.096.624-.288.864-.192.24-.51.426-.954.558-.444.132-1.014.198-1.71.198-.984 0-2.004-.144-3.06-.432a14.73 14.73 0 0 1-2.988-1.17c-.936-.492-1.728-1.05-2.376-1.674l-3.168 4.86c.888.816 1.944 1.518 3.168 2.106 1.224.588 2.574 1.038 4.05 1.35 1.476.312 2.994.468 4.554.468zm20.698-.36-.001-6.409 2.414-3.118 5.075 9.527h8.316l-8.197-14.216 7.62-9.544h-7.955l-7.273 9.713V93.36h-7.343v23.76h7.344z"/></g></svg>
